src/.vuepress/public/icons/electron.svg

<svg viewBox="0 0 32 32" xmlns="http://www.w3.org/2000/svg"><g fill="none" fill-rule="evenodd" stroke="#3c455c"><path d="m11.7014354 7.72646259c-3.78382221-.68265888-6.88808611-.03276311-8.08606641 2.02262452-.88880538 1.52493289-.57658046 3.56319419.66014439 5.69991079m2.05091395 2.7396733c1.56551095 1.7041505 3.64025187 3.3594308 6.08567127 4.7579749 5.8293329 3.3338163 11.8809513 4.1312602 14.7548236 2.1901767m2.6787197-1.080308c0-.8593336-.703262-1.5559611-1.5707798-1.5559611-.8675177 0-1.5707798.6966275-1.5707798 1.5559611s.7032621 1.5559612 1.5707798 1.5559612c.8675178 0 1.5707798-.6966276 1.5707798-1.5559612z"/><path d="m26.1017264 17.699802c2.477301-2.8989355 3.4546628-5.8787321 2.2591774-7.9298393-.8742503-1.49996058-2.7637195-2.25140609-5.1916414-2.28268355m-3.4722051.37355923c-2.2916278.48635929-4.8021739 1.4437115-7.2727913 2.85666642-6.00137808 3.4322095-9.77024989 8.4106784-9.25873832 11.8630172m.51949109 3.031954c.86751773 0 1.5707798-.6966276 1.5707798-1.5559612s-.70326207-1.5559611-1.5707798-1.5559611-1.5707798.6966275-1.5707798 1.5559611.70326207 1.5559612 1.5707798 1.5559612z"/><path d="m10.1856596 25.0699995c1.2953354 3.5829197 3.4143253 5.9176149 5.8085604 5.9176149 1.7350578 0 3.3255669-1.226096 4.5628159-3.2648032m1.4938862-3.3864097c.6864235-2.1728563 1.0832061-4.741573 1.0832061-7.4938882 0-6.7545267-2.3897151-12.40328873-5.5855338-13.80894217m-1.5543744 1.21980213c.8675178 0 1.5707798-.69662752 1.5707798-1.55596112s-.703262-1.55596113-1.5707798-1.55596113c-.8675177 0-1.5707798.69662753-1.5707798 1.55596113s.7032621 1.55596112 1.5707798 1.55596112z"/><path d="m16.2975137 18.2334955c-.775573.1659953-1.539668-.3222453-1.7075722-1.0905015-.1672483-.7682562.3253143-1.5251428 1.1008872-1.691463.7755729-.1659953 1.539668.3222453 1.7075722 1.0905015.1675762.7682562-.3253143 1.5251428-1.1008872 1.691463z"/></g></svg>

<svg aria-hidden="true" focusable="false" role="img" xmlns="http://www.w3.org/2000/svg" viewBox="0 0 32 32"><g stroke="#3c455c" fill="none" fill-rule="evenodd"><path class="svg-stroke" d="M11.7014354,7.72646259 C7.91761319,7.04380371 4.81334929,7.69369948 3.61536899,9.74908711 C2.72656361,11.27402 3.03878853,13.3122813 4.27551338,15.4489979 M6.32642733,18.1886712 C7.89193828,19.8928217 9.9666792,21.548102 12.4120986,22.9466461 C18.2414315,26.2804624 24.2930499,27.0779063 27.1669222,25.1368228 M29.8456419,24.0565148 C29.8456419,23.1971812 29.1423799,22.5005537 28.2748621,22.5005537 C27.4073444,22.5005537 26.7040823,23.1971812 26.7040823,24.0565148 C26.7040823,24.9158484 27.4073444,25.612476 28.2748621,25.612476 C29.1423799,25.612476 29.8456419,24.9158484 29.8456419,24.0565148 L29.8456419,24.0565148 Z"></path><path class="svg-stroke" d="M26.1017264,17.699802 C28.5790274,14.8008665 29.5563892,11.8210699 28.3609038,9.7699627 C27.4866535,8.27000212 25.5971843,7.51855661 23.1692624,7.48727915 M19.6970573,7.86083838 C17.4054295,8.34719767 14.8948834,9.30454988 12.424266,10.7175048 C6.42288792,14.1497143 2.65401611,19.1281832 3.16552768,22.580522 M3.68501877,25.612476 C4.5525365,25.612476 5.25579857,24.9158484 5.25579857,24.0565148 C5.25579857,23.1971812 4.5525365,22.5005537 3.68501877,22.5005537 C2.81750104,22.5005537 2.11423897,23.1971812 2.11423897,24.0565148 C2.11423897,24.9158484 2.81750104,25.612476 3.68501877,25.612476 L3.68501877,25.612476 L3.68501877,25.612476 Z"></path><path class="svg-stroke" d="M10.1856596,25.0699995 C11.480995,28.6529192 13.5999849,30.9876144 15.99422,30.9876144 C17.7292778,30.9876144 19.3197869,29.7615184 20.5570359,27.7228112 M22.0509221,24.3364015 C22.7373456,22.1635452 23.1341282,19.5948285 23.1341282,16.8425133 C23.1341282,10.0879866 20.7444131,4.43922457 17.5485944,3.03357113 M15.99422,4.25337326 C16.8617378,4.25337326 17.5649998,3.55674574 17.5649998,2.69741214 C17.5649998,1.83807854 16.8617378,1.14145101 15.99422,1.14145101 C15.1267023,1.14145101 14.4234402,1.83807854 14.4234402,2.69741214 C14.4234402,3.55674574 15.1267023,4.25337326 15.99422,4.25337326 Z"></path><path class="svg-fill" d="M16.2975137,18.2334955 C15.5219407,18.3994908 14.7578457,17.9112502 14.5899415,17.142994 C14.4226932,16.3747378 14.9152558,15.6178512 15.6908287,15.451531 C16.4664016,15.2855357 17.2304967,15.7737763 17.3984009,16.5420325 C17.5659771,17.3102887 17.0730866,18.0671753 16.2975137,18.2334955 Z"></path></g></svg>
